X: 1
T: The Ballydesmond
R: polka
M: 2/4
L: 1/8
K: Ador
|:AB|c2 B2|A2 GA|Bd ed|g2 ed|
ea ge|dB G>B|ce dB|A2:|
|:cd|ea ag|dg gd|ea ab|g2 ed|
ea ge|dB G>B|ce dB|A2:|


Tune 239	Setting 22990

